X:10
T: STEHE FEST O VATERLAND
N: B0009
O: Europa, Mitteleuropa, Deutschland
R: politisch, national, Vaterlands - Lied
M: 4/4
L: 1/8
K: D
 | D2D2G3F | E2A2F2z2 |
d2A2B3A | A3GF4 |
E2A2B2c2 | B4A2z2 |
e2dcd2A2 | d2f2e4 |
d2d2c2c2 | d2d2e4 |
f2d2B2G2 | F4E4 | D4z4

@@@ Tune index: 1813
